X:1
T:Title
%%score ( 1 2 ) { ( 3 4 ) | 5 }
L:1/8
M:4/4
K:C
V:1 treble nm="Bright Piano"
V:2 treble 
V:3 bass nm="Bright Piano"
V:4 bass 
V:5 bass 
V:1
 z2[Q:1/4=100] [EG]2 [CG]2 [CA][FB] | [Ec]6 [CG]2 | [DG]2 [CG]2 [CA]2 [CG]2 | [DG]4 [CE]4 | %4
 z2 [EG]2 [Ec]2 [EB]2 | [Ec]4 [^FA]4 | [Gd]2 [EG]2 [GB]2 [^FA]2 | [^FA]4 [DG]4 | %8
 z2 C2 [CE]2 [DG]2 | [Cc]4 [EG]4 | [CA]2 [CG]2 F-[B,F] [CE]2 | [B,D]6 z2 | [GB]4 [Gd]2 [GB]2 | %13
[M:1/4] [Gc]2 |] %14
V:2
 x8 | x8 | x8 | x8 | x8 | x8 | x8 | x8 | x8 | x8 | z4 .C2 z2 | x8 | x8 |[M:1/4] x2 |] %14
V:3
 z2 G,2 G,2 z D, | G,6 E,2 | G,2 E,2 F,2 E,2 | G,4 G,4 | z2[K:treble] C2 C2 D2 | C4 D4 | %6
 D2 B,2 D2 C2 | C4 B,4 | z2[K:bass] E,2 A,2 G,2 | G,4 C4 | F,2 E,2 F,2 G,2 | G,6 z2 | D4 F2 F2 | %13
[M:1/4] E2 |] %14
V:4
 z4 z2 F,2 | x8 | x8 | x8 | x2[K:treble] x6 | x8 | x8 | x8 | x2[K:bass] x6 | x8 | x8 | x8 | x8 | %13
[M:1/4] x2 |] %14
V:5
 z2 C,2 E,2 z2 | C,6 C,2 | B,,2 C,2 F,,2 C,2 | B,,4 C,4 | z4 A,2 ^G,2 | A,4 D,2 C,2 | %6
 B,,2 E,2 B,,C, D,2 | G,4 G,4 | z2 C,2 A,,2 B,,2 | E,4 C,4 | z2 C,2 D,2 E,2 | z8 | G,4 B,2 G,2 | %13
[M:1/4] C,2 |] %14

